!!!COM: Scarlatti, Domenico
!!!CDT: 1685///-1757///
!!!OTL: Sonata in D Major, K.160, L.15
!!!SCT: K. 160
!!!SCT: L. 015
!!!OMD: Allegro
**kern	**kern	**dynam
*staff2	*staff1	*staff1/2
*Icemba	*Icemba	*Icemba
*>[A,A,B,B]	*>[A,A,B,B]	*>[A,A,B,B]
*>norep[A,B]	*>norep[A,B]	*>norep[A,B]
*>A	*>A	*>A
*clefG2	*clefG2	*clefG2
*k[f#c#]	*k[f#c#]	*k[f#c#]
*D:	*D:	*D:
*met(c)	*met(c)	*met(c)
*M4/4	*M4/4	*M4/4
*MM126	*MM126	*MM126
=1-	=1-	=1-
4dd\	8dd'\L	f
.	8ff#'\J	.
16r	[4aa^\	.
(16ee\LL	.	.
16cc#\	.	.
16a\JJ	.	.
4dd\)	8aa\L]	.
.	8a'\J	.
16r	[4ff#^\	.
(16a/LL	.	.
16f#/	.	.
16d/JJ	.	.
=2	=2	=2
4g/	16ff#\LL]	.
.	16b\	.
.	16gg\	.
.	16ff#\JJ	.
4a/	16ff#\LL	.
.	16ee\	.
.	16dd\	.
.	16cc#\JJ	.
4d/)	8dd'/L	.
.	8f#'/J	mf
16r	[4a^/	.
*clefF4	*	*
(16e\LL	.	.
16c#\	.	.
16A\JJ	.	.
=3	=3	=3
4d\)	8a/L]	.
.	8A'/J	.
16r	[4f#^/	.
(16A\LL	.	.
16F#\	.	.
16D\JJ	.	.
4G\	16f#/LL]	.
.	16B/	.
.	16g/	.
.	16f#/JJ	.
4A\	16f#/LL	.
.	16e/	.
.	16d/	.
.	16c#/JJ	.
=4	=4	=4
4D\)	16d/LL	f
.	16A/	.
.	16F#/	.
.	16A/JJ	.
(16D\LL	4r	.
16AA\	.	.
16FF#\	.	.
16AA\JJ	.	.
4DD/)	8aa'\L	.
.	ggq/	.
.	16ff#\L	.
.	16ee\JJ	.
4r	8dd\L	.
.	8ccn'\J	.
=5	=5	=5
(8g\L	(8a#/	.
16e\L	4.b/)	.
16d\JJ	.	.
8c#\L)	.	.
8B'\J	.	.
4An\	(8ee\L	.
.	16cc#\L	.
.	16b\JJ	.
4r	8an/L)	.
.	8g'/J	.
=6	=6	=6
(8d\L	(8e#^/	.
16A'\L	4.f#/)	.
16G\JJ	.	.
8F#\L)	.	.
8En'\J	.	.
4D\	8aa'\L	.
.	(ggq/	.
.	(16ff#\L)	p
.	16een\JJ	.
4r	8dd\L)	.
.	8ccn'\J	.
=7	=7	=7
(8g\L	(8a#^/	.
16e\L	4.b/)	.
16d\JJ	.	.
8c#\L)	.	.
8B'\J	.	.
4An\	(8ee\L	.
.	16cc#\L	p
.	16b\JJ	.
4r	8an/L)	.
.	8g'/J	.
=8	=8	=8
(8d\L	(8e#^/	.
16A\L	4.f#/)	.
16G\JJ	.	.
8F#\L)	.	.
8En'\J	.	.
4D^\	(16ff#\LL	<
.	16dd\	(
.	16a\	(
.	16f#\JJ)	(
(16d\LL	8d/L	(
16A\	.	(
16B\	(16g/L	(
16c#\JJ)	16en/JJ)	(
=9	=9	=9
4D^\	(16ff#\LL	(
.	16dd\	(
.	16a\	(
.	16f#\JJ)	(
16d\LL	8d/L	(
16A\	.	(
16B\	(16g/L	(
16c#\JJ	16e/JJ)	(
4D^\	(16ff#\LL	(
.	16dd\	(
.	16a\	(
.	16f#\JJ)	(
16d\LL	8d/L	(
16A\	.	(
16B\	(16g/L	(
16c#\JJ	16e/JJ	[
=10	=10	=10
16DD/LL	4.d/) 4.f#/	f
16FF#/	.	.
16AA/	.	.
16D/JJ	.	.
16F#\LL	.	.
16A\	.	.
16d\	8ddd'\	.
16f#\JJ	.	.
4AA^/	(16ccc#\LL	.
.	16aa\	.
.	16gg\	.
.	16ee\JJ	.
4r	16cc#\LL	.
.	16a\	.
.	16gg\	.
.	16ee\JJ	.
=11	=11	=11
16DD/LL	4.dd\ 4.ff#\)	.
16FF#/	.	.
16AA/	.	.
16D/JJ	.	.
16F#\LL	.	.
16A\	.	.
16d\	8ddd'\	.
16f#\JJ	.	.
4AA^/	(16ccc#\LL	.
.	16aa\	.
.	16gg\	.
.	16ee\JJ	.
4r	16cc#\LL	.
.	16a\	.
.	16gg\	.
.	16ee\JJ	.
=12	=12	=12
16DD/LL	4dd\ 4ff#\)	.
16FF#/	.	.
16AA/	.	.
16D/JJ	.	.
16F#\LL	4r	.
16A\	.	.
16d\	.	.
16f#\JJ	.	.
4EE^/	(16ddd\LL	.
.	16bb\	.
.	16gg#\	.
.	16dd\JJ	.
4r	16b\LL	.
.	16g#\	.
.	16b\	.
.	16gg#\JJ	.
=13	=13	=13
16C#\LL	4aa\)	.
16E\	.	.
16A\	.	.
16c#\JJ	.	.
4r	(16e/LL	.
.	16a/	.
.	16cc#/	.
.	16a/JJ)	.
4D^\	16r	.
.	(16ff#\LL	.
.	16ddd\	.
.	16ccc#\JJ	.
4r	16bb\LL	.
.	16aa\	.
.	16gg#\	.
.	16aa\JJ	.
=14	=14	=14
4EE/	16gg#\LL	.
.	16aa\	.
.	16bb\	.
.	16dd\JJ	.
4r	16cc#\LL	.
.	16aa\	.
.	16gg#\	.
.	16b\JJ	.
4EE/	16a\LL	.
.	16ff#\	.
.	16ee\	.
.	16g#\JJ	.
4r	16f#/LL	.
.	16dd/	.
.	16cc#/	.
.	16e/JJ	.
=15	=15	=15
4EE/	16d/LL	.
.	16b/	.
.	16a/	.
.	16c#/JJ	.
4r	16g#/LL	.
.	16B/	.
.	16f#/	.
.	16A/JJ	.
4EE/	16G#/LL	.
.	16e/	.
.	16d#/	.
.	16F#/JJ	.
4EE\	8E'/L)	.
.	8e'/J	.
=16	=16	=16
1r;	1r;	.
=17	=17	=17
*	*^	*
4r	4r	(8ee\L	mf
.	.	16ccn\L	.
.	.	16b\JJ	.
4.e\	8a/L)	4r	.
.	(8g/J	.	.
.	8fn/)	4r	.
4d\	(4ffn/	.	.
.	.	8g#\L	.
8cn\	8ee/	8a\J	.
=18	=18	=18	=18
*^	*	*	*
(4d/	8B\L	8dd/L	4.dd\	.
.	8A\	8cccn/	.	.
4e/)	8G#\	8bb/	.	.
.	8A\J	8aa/J)	8cc#\	.
2r	4E\	(4.aa/	8b\L	>
.	.	.	8dd#\J	)
.	4e\	.	4ee\	)
.	.	8gg#/)	.	)
*v	*v	*	*	*
*	*v	*v	*
=19	=19	=19
2r;	2r;	]
4r	(8ee\L	p
.	16ccn\L	.
.	16b\JJ	.
[4e\	8a/L)	.
.	(8gn/J	.
=20	=20	=20
*^	*^	*
2r	8e\]	8fn/)	4r	.
.	4d\	(4ffn/	.	.
.	.	.	8g#\L	.
.	8cn\	8ee/	8a\J	.
(4d/	8B\L	8dd/L	4.dd\	.
.	8A\	8cccn/	.	.
4e/)	8G#\	8bb/	.	.
.	8A\J	8aa/J)	8ccn\	.
*v	*v	*	*	*
=21	=21	=21	=21
4E\	(4.aa/	8b\L	>
.	.	8dd#\J	)
4e\	.	4ee\	)
.	8gg#/)	.	]
2r	4r	(16dddn\LL	f
.	.	16bb\	.
.	.	16gg#\	.
.	.	16ddn\JJ	.
.	16b/LL	4r	.
.	16g#/	.	.
.	16e/	.	.
.	16dd/JJ	.	.
*	*v	*v	*
=22	=22	=22
16AA\LL	4cc\)	.
16C#\	.	.
16E\	.	.
16A\JJ	.	.
*clefG2	*	*
16c#/LL	4r	.
16e/	.	.
16a/	.	.
16cc#/JJ	.	.
4c#/	(16ddd\LL	.
.	16bb\	.
.	16gg#\	.
.	16dd\JJ	.
4r	16b/LL	.
.	16g#/	.
.	16e/	.
.	16dd/JJ	.
=23	=23	=23
*clefF4	*k[f#c#]	*k[f#c#]
*k[f#c#]	*	*
16AA\LL	4cc#\)	.
16C#\	.	.
16E\	.	.
16A\JJ	.	.
*clefG2	*	*
16c#/LL	4r	.
16e/	.	.
16a/	.	.
16cc#/JJ	.	.
*clefF4	*	*
4C#/	16r	.
.	(16ccc#\LL	.
.	16aa\	.
.	16ee\JJ	.
4r	16cc#\LL	.
.	16a\	.
.	16cc#\	.
.	16ee\JJ	.
=24	=24	=24
*	*^	*
4D\	2r	16ff#\LL	.
.	.	16aa\	.
.	.	16ff#\	.
.	.	16dd\JJ	.
4r	.	16b\LL	.
.	.	16g#\	.
.	.	16b\	.
.	.	16dd\JJ	.
(4E\	8r	16cc#\LL	.
.	.	16ee\	.
.	8aa^/	(16aa\)	.
.	.	16a\JJ	.
4D\	4r	16aa\LL)	.
.	.	(16bb\	.
.	.	16gg#\	.
.	.	16dd\JJ)	.
*	*v	*v	*
=25	=25	=25
4C#/	16r	.
.	16ddd\LL	f
.	16ccc#\	.
.	16bb\JJ	.
4A\	16aa\LL	.
.	16gg#\	.
.	16ff#\	.
.	16ee\JJ	.
4D\)	16ee#\LL	.
.	16ff#\	.
.	16cc#\	.
.	16dd\JJ	.
4r	16a#\LL	.
.	16b\JJ	.
.	16e#/LL	.
.	16f#/JJ	.
=26	=26	=26
4r	16c#/LL	.
.	16d/	.
.	16en/	.
.	16f#/JJ	.
4D\ (4B\	16g#/LL	.
.	16dd/	.
.	16cc#/	.
.	16b/JJ	.
4E\ 4c#\	16an/LL	.
.	32b/L	.
.	32a/	.
.	32g#/	.
.	32a/J	.
.	16b/JJ	.
4D\ 4B\	(8.b/L	.
.	16a/Jk)	.
=27	=27	=27
*	*^	*
4C#\ 4A\)	2.r	16r	.
.	.	16ddd\LL	p
.	.	16ccc#\	.
.	.	16bb\JJ	.
4r	.	16aa\LL	.
.	.	16gg#\	.
.	.	16ff#\	.
.	.	16ee\JJ	.
4.D\	.	16ee#\LL	.
.	.	16ff#\	.
.	.	16cc#\	.
.	.	16dd\JJ	.
.	8r	16a#\LL	.
.	.	16b\JJ	.
8r	8r	16e#/LL	.
.	.	16f#/JJ	.
*	*v	*v	*
=28	=28	=28
4r	16c#/LL	.
.	16d/	.
.	16e/	.
.	16f#/JJ	.
4D\ (4B\	16g#/LL	.
.	16dd/	.
.	16cc#/	.
.	16b/JJ	.
4E\	16a/LL	.
.	32b/L	.
.	32a/	.
.	32g#/	.
.	32a/J	.
.	16b/JJ	.
4EE/)	(8.b/L	.
.	16a/Jk)	.
=29	=29	=29
4.AA^/	(16a/LL	f
.	16e/	.
.	16c#/	.
.	16A/JJ	.
.	16c#/LL	.
.	16a/	.
8EE'/ 8E'/	16B/	.
.	16g#/JJ	.
4.AA^/	(16cc#/LL)	.
.	16a/	.
.	16e/	.
.	16c#/JJ	.
.	16e/LL	.
.	16cc#/	.
8EE/ 8E/	16b/	.
.	16d/JJ)	.
=30	=30	=30
4.AA^/	(16ee\LL	.
.	16cc#\	.
.	16a\	.
.	16e\JJ	.
.	16a\LL	.
.	16ee\	.
8EE'/ 8E'/	16dd\	.
.	16b\JJ)	.
4.AA^/	(16aa\LL	.
.	16ee\	.
.	16cc#\	.
.	16a\JJ	.
.	16cc#\LL	.
.	16aa\	.
8EE'/ 8E'/	16b\	.
.	16gg#\JJ)	.
=31	=31	=31
4.AA^/	(16ccc#\LL	.
.	16aa\	.
.	16ee\	.
.	16cc#\JJ	.
.	16ee\LL	.
.	16ccc#\	.
8EE'/ 8E'/	16bb\	.
.	16dd\JJ	.
4.AA^/	(16aa\LL)	<
.	16ee\	(
.	16cc#\	(
.	16a\JJ	(
.	16cc#\LL	(
.	16aa\	(
8EE'/ 8E'/	16b\	(
.	16gg#\JJ	(
=32	=32	=32
8AA'/ 8A'/L	16cc#\LL	(
.	16aa\	(
8EE'/ 8E'/J	16b\	(
.	16gg#\JJ	(
8AA'/ 8A'/L	16cc#\LL	(
.	16aa\	(
8EE'/ 8E'/J	16b\	(
.	16gg#\JJ)	(
.	(gg#q/	[
4AA^\ 4A^\	4aa'\)	ff
4r	4r	.
=33:|!|:	=33:|!|:	=33:|!|:
*>B	*>B	*>B
2r	(8ee\L	f
.	ddq/	.
.	16cc#\L	.
.	16b\JJ	.
.	8a/L	.
.	8f#/J	.
(8e\L	4.gn/	.
16c#\L	.	.
16B\JJ	.	.
8A#\L	.	.
8G\J	8e/)	> ]
=34	=34	=34
4F#\) 4e\	16ee/LL	p
.	16cc#/	.
.	16a#/	.
.	16f#/JJ	.
4r	16ee\LL	.
.	16dd\	.
.	16dd\	.
.	16cc#\JJ	.
4F#\ 4B\ 4d\	16dd/LL	.
.	16b/	.
.	16f#/	.
.	16d/JJ	.
4r	16dd\LL	.
.	16cc#\	.
.	16cc#\	.
.	16b\JJ	.
=35	=35	=35
*^	*^	*
2r	4F#\ 4c#\ 4e\	2.r	16cc#/LL	.
.	.	.	16a#/	.
.	.	.	16g/	.
.	.	.	16e/JJ	.
.	4r	.	16cc#\LL	.
.	.	.	16b\	.
.	.	.	(16b\	.
.	.	.	16a#\JJ	.
8B/ 8d/	4.F#\	.	16b/LL	.
.	.	.	16f#/	.
4.r	.	.	16d/	.
.	.	.	16B/JJ	.
.	.	4b/)	(16b\LL	.
.	.	.	16e#\	.
.	8F#\	.	16f#\	.
.	.	.	16e#\JJ	.
*v	*v	*	*	*
=36	=36	=36	=36
8F#\ (8c#\L	8a#/L	16f#\LL	.
.	.	16e#\	.
8F#\ 8d\	8b/	16f#\	.
.	.	16e#\JJ	.
8F#\ 8c#\	8a#/	16f#\LL	.
.	.	16e#\	.
8F#\ 8d\J	8b/J	16f#\	.
.	.	16e#\JJ	.
8F#\ 8c#\L	8a#/L	16f#\LL	.
.	.	16e#\	.
8F#\ 8d\	8b/	16f#\	.
.	.	16e#\JJ	.
8F#\ 8c#\	8cc#/	16f#\LL	.
.	.	16e#\	.
8F#\ 8B\J)	8dd/J)	16f#\	.
.	.	16e#\JJ	.
*	*v	*v	*
=37	=37	=37
4FF#/	4cc#\	mf
4r;	4r;	.
4r	(8ff#\L	f
.	eeq/	.
.	16dd\L	.
.	16cc#\JJ	.
[4f#\	8b/L	.
.	8an/J	.
=38	=38	=38
*^	*^	*
4r	8f#\L]	4g/)	4r	.
.	16e\L	.	.	.
.	16d\JJ	.	.	.
4e/	8c#\L	(4.gg/	8a#\L	.
.	8B\J	.	8b\J	.
2r	4A#\ 4e\	.	4cc#\	.
.	.	16ff#/LL	.	.
.	.	16ee/JJ	.	.
.	4F#\ 4e\	8dd/L	4r	.
.	.	8cc#/J)	.	.
*v	*v	*	*	*
*clefG2	*	*	*
=39	=39	=39	=39
4B/ 4f#/	(8ddd/L	4dd\	.
.	16bb/L	.	.
.	16aa/JJ	.	.
4b/	2.r	8gg#\L	.
.	.	8ff#\J)	.
4c#/ 4g#/	.	(16bb\LL	p
.	.	16gg#\	.
.	.	16ee#\	.
.	.	16cc#\JJ	.
4r	.	16bb\LL	.
.	.	16aa\)	.
.	.	(16aa\	.
.	.	16gg#\JJ	.
*	*v	*v	*
=40	=40	=40
4c#/ 4f#/ 4a/	16aa\LL	.
.	16ff#\	.
.	16cc#\	.
.	16a\JJ	.
4r	16aa\LL	.
.	16gg#\)	.
.	(16gg#\	.
.	16ff#\JJ	.
4c#/ 4g#/ 4b/	16gg#\LL	.
.	16ee#\	.
.	16dd\	.
.	16b\JJ	.
4r	16gg#\LL	.
.	16ff#\)	.
.	(16ff#\	.
.	16ee#\JJ	.
=41	=41	=41
*	*^	*
4.c#/ 4.f#/	4.ff#/)	(16a\LL	.
.	.	16b#\	.
.	.	16cc#\	.
.	.	16b#\JJ	.
.	.	16cc#\LL	.
.	.	16b#\	.
8c#/ 8a/	8ff#/	16cc#\	.
.	.	16b#\JJ	.
8c#/ 8g#/L	8ee#/L	16cc#\LL	.
.	.	16b#\	.
8c#/ 8a/	8ff#/	16cc#\	.
.	.	16b#\JJ	.
8c#/ 8g#/	8ee#/	16cc#\LL	.
.	.	16b#\	.
8c#/ 8a/J	8ff#/J	16cc#\	.
.	.	16b#\JJ	.
=42	=42	=42	=42
8c#/ 8g#/L	8ee#/L	16cc#\LL	.
.	.	16b#\	.
8c#/ 8a/	8ff#/	16cc#\	.
.	.	16b#\JJ	.
8c#/ 8g#/	8gg#/	16cc#\LL	.
.	.	16b#\	.
8c#/ 8f#/J	8aa/J	16cc#\	.
.	.	16b#\JJ)	.
*clefF4	*	*	*
4C#/	2r	4gg#\	mf
4r;	.	4r;	.
*	*v	*v	*
=43	=43	=43
2r	(8gg#\L	f
.	16aa\L	.
.	16bb\JJ	.
.	16aa\LL	.
.	16gg#\	.
.	16ff#\	.
.	16ee#\JJ	.
*clefG2	*	*
(16a/LL	4ff#\)	.
16cc#/	.	.
16f#/	.	.
16a/JJ	.	.
16d/LL	4r	.
16f#/	.	.
16B/	.	.
16d/JJ	.	.
*clefF4	*	*
=44	=44	=44
16G#\LL	8r	.
16B\	.	.
16E#\	8gg#'\	.
16G#\JJ	.	.
4C#/)	16gg#\LL	.
.	32aa\L	.
.	32bb\J	.
.	16aa\	.
.	16gg#\JJ	.
*clefG2	*	*
(16a/LL	4ff#\	.
16cc#/	.	.
16f#/	.	.
16a/JJ	.	.
16d/LL	4r	.
16f#/	.	.
16B/	.	.
16d/JJ	.	.
*clefF4	*	*
=45	=45	=45
16G#\LL	8r	.
16B\	.	.
16E#\	8gg#'\	.
16G#\JJ	.	.
4C#/)	16gg#\LL	.
.	32aa\L	.
.	32bb\J	.
.	16aa\	.
.	16gg#\JJ	.
*clefG2	*	*
(16a/LL	4ff#\	.
16cc#/	.	.
16f#/	.	.
16a/JJ	.	.
16cn/LL	4r	.
16e/	.	.
16A/	.	.
16c/JJ	.	.
*clefF4	*	*
=46	=46	=46
16F#\LL	8r	.
16A\	.	.
16D#\	8ff#'\	.
16F#\JJ	.	.
4BB/)	16ff#\LL	.
.	32ggn\L	.
.	32aa\J	.
.	16gg\	.
.	16ff#\JJ	.
(16g\LL	4ee\	.
16b\	.	.
16e\	.	.
16g\JJ	.	.
16cn\LL	4r	.
16e\	.	.
16A\	.	.
16c\JJ	.	.
=47	=47	=47
16F#\LL	8r	.
16A\	.	.
16D#\	8ff#'\	.
16F#\JJ	.	.
4BB/)	16ff#\LL	.
.	32gg\L	.
.	32aa\J	.
.	16gg\	.
.	16ff#\JJ	.
(16g\LL	4ee\	.
16b\	.	.
16e\	.	.
16g\JJ	.	.
16B\LL	4r	.
16e\	.	.
16G\	.	.
16B\JJ	.	.
=48	=48	=48
16E\LL	8r	.
16G\	.	.
16C#\	8ee'\	.
16E\JJ	.	.
4AA/)	16ee\LL	.
.	32ff#\L	.
.	32gg\J	.
.	16ff#\	.
.	16ee\JJ	.
(16f#\LL	4dd\	.
16a\	.	.
16d\	.	.
16f#\JJ	.	.
16B\LL	4r	.
16d\	.	.
16G\	.	.
16B\JJ	.	.
=49	=49	=49
16E'\LL	8r	.
16G\	.	.
16C#\	8ee'\	.
16E\JJ	.	.
8AA/L)	16ee\LL	.
.	32ff#\L	.
.	32gg\J	.
(8GG/J	16ff#\	.
.	16ee\JJ	.
4FF#/	16dd\LL	.
.	16aa\	.
.	16gg\	.
.	16ff#\JJ	.
4GG/)	16ee\LL	.
.	16dd\	.
.	16cc#\	.
.	16dd\JJ	.
=50	=50	=50
(16AA\LL	4a/	.
16C#\	.	.
16E\	.	.
16A\JJ	.	.
*clefG2	*	*
16c#/LL	4r	.
16e/	.	.
16a/	.	.
16cc#/JJ)	.	.
*clefF4	*	*
4AA/	16r	.
.	16ccc#\LL	.
.	16aa\	.
.	16ee\JJ	.
4r	16cc#/LL	.
.	16a/	.
.	16e/	.
.	16c#/JJ	.
=51	=51	=51
16AA\LL	4aa\	.
16C#\	.	.
16E\	.	.
16A\JJ	.	.
*clefG2	*	*
16c#/LL	4r	.
16e/	.	.
16a/	.	.
16cc#/JJ	.	.
*clefF4	*	*
4AA/	16r	.
.	(16ccc#\LL	.
.	16aa\	.
.	16ee\JJ	.
4r	16cc#\LL	.
.	16aa\	.
.	16ee\	.
.	16cc#\JJ	.
=52	=52	=52
4r	16a\LL	.
.	16ee\	.
.	16cc#\	.
.	16a\JJ	.
8r	16e/LL	.
.	16c#/JJ)	.
16A\LL	8r	.
16E\JJ	.	.
4AA/	2r;	.
4r;	.	.
=53	=53	=53
*	*^	*
4r	2r	(8aa\L	mf
.	.	ggnq/	.
.	.	16ff#\L	.
.	.	16ee\JJ	.
4.a\	.	8dd\L	.
.	.	8ccn\J	.
.	8b-'/)	4r	.
4g\	(4bb-/	.	.
.	.	8cc#\L	.
8fn\ 8a\	[8aa/	8dd\J	.
=54	=54	=54	=54
*^	*	*	*
4g/	8e\L	8aa/]	4b-\	.
.	8d\	4gg/	.	.
2.r	8c#\	.	4a\	.
.	8d\J	[8ffn/)	.	.
.	4A\	4ff/]	(8g#^\L	.
.	.	.	8a\J)	.
.	4r	(8dd#^/L	4r	.
.	.	8ee/J)	.	.
*v	*v	*	*	*
=55	=55	=55	=55
4r	2r	(8aa\L	p
.	.	ggnq/	.
.	.	16ffn\L	.
.	.	16ee\JJ	.
4.a\	.	8dd\L	.
.	.	8ccn\J	.
.	8b-/)	4r	.
4g\	(4bb-/	.	.
.	.	(8cc#\L)	.
8fn\ 8a\	[8aa/	8dd\J	.
=56	=56	=56	=56
*^	*	*	*
4g/	8e\L	8aa/]	4b-\	.
.	8d\	4gg/	.	.
2.r	8c#\	.	4a\)	.
.	8d\J	[8ffn/	.	.
.	4A\	4ff/]	(8g#^\L	.
.	.	.	8a\J)	.
.	4r	(8dd#^/L	4r	.
.	.	8ee/J)	.	.
*v	*v	*	*	*
*	*v	*v	*
=57	=57	=57
4AA/	16r	.
.	(16ccc#\LL	f
.	16aa\	.
.	16ggn\JJ	.
4r	16ee\LL	.
.	16cc#\	.
.	16a\	.
.	16gg\JJ	.
(16DD/LL	4ff#\)	.
16FF#/	.	.
16AA/	.	.
16D/JJ	.	.
16F#\LL	8r	.
16A\	.	.
16d\	8ddd'\	.
16f#\JJ)	.	.
=58	=58	=58
4AA/	(16ccc#\LL	.
.	16aa\	.
.	16ee\	.
.	16cc#\JJ	.
4r	16a\LL	.
.	16cc#\	.
.	16ee\	.
.	16gg\JJ	.
(16DD/LL	4ff#\)	.
16FF#/	.	.
16AA/	.	.
16D/JJ	.	.
16F#\LL	8r	.
16A\	.	.
16d\	8ddd'\	.
16f#\JJ)	.	.
=59	=59	=59
4AA/	(16ccc#\LL	.
.	16aa\	.
.	16gg\	.
.	16ee\JJ	.
4r	16cc#\LL	.
.	16a\	.
.	16gg\	.
.	16ee\JJ	.
4D\	16ff#\LL	.
.	16aa\	.
.	16cc#\	.
.	16ee\JJ	.
4F#\	16dd\LL	.
.	16ff#\	.
.	16a\	.
.	16cc#\JJ	.
=60	=60	=60
4G\	16b\LL)	.
.	(16bb\	.
.	16aa\	.
.	16gg\JJ	.
(4GG/	16ff#\LL	.
.	16ee\	.
.	16dd\	.
.	16ee\JJ	.
4A\	16f#/LL	.
.	16a/	.
.	16dd/	.
.	16d/JJ	.
4G\	16e/LL	.
.	(16ee/)	.
.	16cc#/	.
.	16g/JJ)	.
=61	=61	=61
*	*^	*
4F#\)	2r	16r	.
.	.	16gg\LL	f
.	.	16ff#\	.
.	.	16ee\JJ	.
4r	.	16dd\LL	.
.	.	16cc#\	.
.	.	16b\	.
.	.	16a\JJ	.
4G\	16a#/LL	4r	.
.	16b/	.	.
.	16f#/	.	.
.	16g/JJ	.	.
4r	8r	16d#\LL	.
.	.	16e\JJ	.
.	16A#/LL	8r	.
.	16B/JJ	.	.
*	*v	*v	*
=62	=62	=62
4r	16G/LL	.
.	16An/	.
.	16B/	.
.	16c#/JJ	.
(4G\	16d/LL	.
.	16g/	.
.	16f#/	.
.	16e/JJ	.
4A\	16d/LL	.
.	32e/L	.
.	32d/	.
.	32c#/	.
.	32d/J	.
.	16e/JJ	.
4G\	(8.e/L	.
.	16d/Jk)	.
=63	=63	=63
*	*^	*
4F#\)	2r	16r	.
.	.	16gg\LL	p
.	.	16ff#\	.
.	.	16ee\JJ	.
4r	.	16dd\LL	.
.	.	16cc#\	.
.	.	16b\	.
.	.	16a\JJ	.
4G\	16a#/LL	4r	.
.	16b/	.	.
.	16f#/	.	.
.	16g/JJ	.	.
4r	8r	16d#\LL	.
.	.	16e\JJ	.
.	16A#/LL	8r	.
.	16B/JJ	.	.
*	*v	*v	*
=64	=64	=64
4r	16G/LL	.
.	16An/	.
.	16B/	.
.	16c#/JJ	.
4G\	16d/LL	.
.	16g/	.
.	16f#/	.
.	16e/JJ	.
4A\	16d/LL	.
.	32e/L	.
.	32d/	.
.	32c#/	.
.	32d/J	.
.	16e/JJ	.
4G\	(8.e/L	<
.	32d/LL	(
.	32e/JJJ	[
=65	=65	=65
4.DD^\ 4.D^\	16f#/LL)	mf
.	(16d/	.
.	16A/	.
.	16d/JJ	.
.	16f#/LL	.
.	16A/	.
8AA'/	16G/	.
.	16e/JJ)	.
4.DD^\ 4.D^\	(16f#/LL	.
.	16d/	<
.	16f#/	(
.	16a/JJ	(
.	16dd/LL	(
.	16f#/	(
8AA'/	16e/	(
.	16cc#/JJ)	(
=66	=66	=66
4.FF#^/ 4.D^/	(16ff#\LL	(
.	16dd\	(
.	16a\	(
.	16f#\JJ	(
.	16a\LL	(
.	16ff#\	(
8AA'/	16ee\	(
.	16g\JJ)	(
4.DD^/ 4.D^/	(16aa\LL	(
.	16ff#\	(
.	16dd\	(
.	16a\JJ	(
.	16dd\LL	(
.	16aa\	(
8AA'/	16gg\	(
.	16ee\JJ)	[
=67	=67	=67
4.DD^/ 4.D^/	(16ddd\LL	f
.	16aa\	.
.	16ff#\	.
.	16dd\JJ	.
.	16ff#\LL	.
.	16ddd\	.
8AA'/	16ee\	.
.	16ccc#\JJ	.
4AA'/	16ff#\LL	.
.	16ddd\	.
.	16ee\	.
.	16ccc#\JJ	.
8DD'/ 8D'/L	16ff#\LL	.
.	16ddd\	.
8AA'/J	16ee\	.
.	16ccc#\JJ	.
=68	=68	=68
4DD^/ 4D^/	4dd\ 4ddd\)	ff
4r	4r	.
2r	2r	.
==:|!	==:|!	==:|!
*-	*-	*-
!!!ENC: Kelly Leistikow
!!!END: 2005/08/07/
!!!ONB: Translated to Humdrum by Craig Stuart Sapp 2005/08/07
